src/shared/assets/dialog/dialog-warning.svg

<svg width="24" height="24" viewBox="0 0 24 24" fill="none" xmlns="http://www.w3.org/2000/svg">
<path fill-rule="evenodd" clip-rule="evenodd" d="M12 2.87C7.02944 2.87 3 6.89944 3 11.87C3 16.8406 7.02944 20.87 12 20.87C16.9706 20.87 21 16.8406 21 11.87C21 6.89944 16.9706 2.87 12 2.87Z" fill="#FF3B30"/>
<path d="M10.9595 12.5265L10.9595 12.5278C10.9695 12.8342 11.0502 13.1086 11.2423 13.3061C11.4371 13.5062 11.7061 13.5864 12.0044 13.5864C12.2963 13.5864 12.5599 13.5048 12.7486 13.3019C12.9329 13.1036 13.0075 12.83 13.0143 12.5263L13.1542 8.05694C13.1684 7.72799 13.0638 7.43851 12.8339 7.21201C12.6068 6.9821 12.3177 6.87 11.9869 6.87C11.6581 6.87 11.3704 6.9777 11.1472 7.2043C10.922 7.43283 10.8232 7.72541 10.837 8.05629L10.9595 12.5265Z" fill="white"/>
<path d="M11.0882 17.3104L11.091 17.3131L11.0938 17.3158C11.347 17.5514 11.6552 17.67 12.0044 17.67C12.3449 17.67 12.6465 17.5494 12.8974 17.3158C13.1571 17.074 13.2857 16.762 13.2857 16.4006C13.2857 16.0398 13.1575 15.7283 12.8988 15.4867C12.6517 15.2506 12.3488 15.1313 12.0044 15.1313C11.6528 15.1313 11.3436 15.2546 11.091 15.4973C10.8394 15.7386 10.7143 16.0461 10.7143 16.4006C10.7143 16.7551 10.8392 17.064 11.0882 17.3104Z" fill="white"/>
</svg>

<svg xmlns="http://www.w3.org/2000/svg" fill="none" viewBox="0 0 24 24"><path fill="#ff3b30" fill-rule="evenodd" d="M12 2.87a9 9 0 1 0 0 18 9 9 0 0 0 0-18" clip-rule="evenodd"/><path fill="#fff" d="M10.96 12.527c.01.307.09.582.282.78.195.2.464.28.762.28.292 0 .556-.082.745-.285.184-.198.258-.472.265-.776l.14-4.47a1.08 1.08 0 0 0-.32-.844 1.15 1.15 0 0 0-.847-.342 1.14 1.14 0 0 0-.84.334 1.1 1.1 0 0 0-.31.852zm.128 4.783.003.003.003.003a1.3 1.3 0 0 0 .91.354c.34 0 .643-.12.893-.354.26-.242.389-.554.389-.915s-.128-.673-.387-.914a1.26 1.26 0 0 0-.895-.356c-.351 0-.66.124-.913.366a1.2 1.2 0 0 0-.377.904c0 .354.125.663.374.91"/></svg>
